!!!COM: Hugo Wolf
!!!CNT: Deutscher
!!!TXO: Deutsche 
!!!OTL: Denk es, o Seele
!!!ONM: No. 39
!!!ODT: 1888/
!!!LYR: Moericke
!!!ONB: Original key: d minor
!!!ENC: Brian Bice
!!!YOR: 65 Songs for voice and piano, International Music Company, 1960
!!NB: Vocal melody and text only encoded.
**kern	**silbe
*clefG2	*
*k[b-e-a-d-]	*
*M6/8	*
=11	=11
4r	.
{8cc	{Ein
4cc	Ta2nn-
8c	-lein
=12	=12
4cc	gru2-
8ff	-net
4.cc	wo,
=13	=13
4r	.
8cc	wer
8ddn	weiss,
16cc	|
16r	.
8ddn	im
=14	=14
4ee-	Wal-
8b-}	-de,}
4r	.
{8ee-	{ein
=15	=15
4ee-	Ro-
8ee-	-sen-
4.ee-	-strauch,
=16	=16
4r	.
8ee-	wer
4ee-	sagt,
8r	.
=17	=17
4r	.
8ee-	in
4een	wel-
8een	-chem
=18	=18
4ff	Gar-
8cc}	-ten?}
4r	.
8r;	.
=19	=19
*k[f#c#]	*
4r	.
{8f#	{Sie
4f#	sind
8f#	er-
=20	=20
4f#	-le-
8b	-sen
4.b	schon,
=21	=21
4.dd	denk
4cc#	es,
8b	o
=22	=22
4.a	See-
4.g#}	-le,}
=23	=23
4r	.
{8g#	{auf
4g#	dei-
8a#	-nem
=24	=24
4b	Grab
8cc#	zu
4ee	wur-
8dd	-zeln
=25	=25
4r	.
8r	.
8r	.
8d#	und
8e	zu
=26	=26
4a	wach-
8g}	-sen.}
4r	.
8r	.
=33	=33
*k[b-e-a-d-]	*
4r	.
8r	.
4r	.
{8cc	{Zwei
=34	=34
4cc	schwar-
8cc	-ze
4cc	Ro2ss-
8cc	-lein
=35	=35
4cc	wei-
8cc	-den
8.ddn	auf
16cc	|
8ddn	der
=36	=36
4ee-	Wie-
8b-}	-se,}
4r	.
8r	.
=37	=37
4r	.
8r	.
4r	.
{8ee-	{sie
=38	=38
4ee-	keh-
8ee-	-ren
4ee-	heim
8ee-	zur
=39	=39
4ee-	Stadt
8ee-	in
4een	mun-
8een	-tern
=40	=40
4ff	Spru2n-
8cc}	-gen.}
4r	.
8r	.
=42	=42
4r	.
8r	.
8.r	.
{8.ff	{Sie
=43	=43
*M2/4	*
8ff	wer-
8ff	-den
8ee-	schritt-
8dd-	-weis
=44	=44
[2cc	gehn
=45	=45
8cc]	|
8dd-	mit
8cc	dei-
8b-	-ner
=46	=46
4cc	Lei-
4cc}	-che;}
=47	=47
8.r	.
{16cc	{wiel-
[4cc	-leicht,
=48	=48
8cc]	|
16r	.
16cc	viel-
[4cc	-leicht
=49	=49
8cc]	|
8cc	noch
8cc	eh
8cc	an
=50	=50
8cc	ih-
8cc	-ren
8cc	Hu-
16cc}	-fen}
{16cc	{das
=51	=51
8.ff	Ei-
16a-	-sen
8a-	los
8a-	wird,
=52	=52
8r	.
4g	das
8f	ich
=53	=53
8.bn	bli-
16cc	-tzen
[4cc	se-
=54	=54
8cc]	|
8en}	-he!}
4r	.
*-	*-
